img/providers/nimbuzz.svg

<?xml version="1.0" encoding="UTF-8" standalone="no"?>
<!-- Created with Inkscape (http://www.inkscape.org/) -->

<svg
   xmlns:dc="http://purl.org/dc/elements/1.1/"
   xmlns:cc="http://creativecommons.org/ns#"
   xmlns:rdf="http://www.w3.org/1999/02/22-rdf-syntax-ns#"
   xmlns:svg="http://www.w3.org/2000/svg"
   xmlns="http://www.w3.org/2000/svg"
   xmlns:xlink="http://www.w3.org/1999/xlink"
   xmlns:sodipodi="http://sodipodi.sourceforge.net/DTD/sodipodi-0.dtd"
   xmlns:inkscape="http://www.inkscape.org/namespaces/inkscape"
   version="1.1"
   width="64"
   height="64"
   id="svg6146"
   inkscape:version="0.48.4 r9939"
   sodipodi:docname="nimbuzz.svg">
  <sodipodi:namedview
     pagecolor="#ffffff"
     bordercolor="#666666"
     borderopacity="1"
     objecttolerance="10"
     gridtolerance="10"
     guidetolerance="10"
     inkscape:pageopacity="0"
     inkscape:pageshadow="2"
     inkscape:window-width="2560"
     inkscape:window-height="1391"
     id="namedview13"
     showgrid="false"
     inkscape:zoom="10.353534"
     inkscape:cx="55.198523"
     inkscape:cy="23.460087"
     inkscape:window-x="0"
     inkscape:window-y="25"
     inkscape:window-maximized="1"
     inkscape:current-layer="svg6146"
     inkscape:snap-bbox="true"
     inkscape:snap-page="true" />
  <defs
     id="defs6148">
    <linearGradient
       y2="-231.95239"
       x2="1316.665"
       y1="231.07143"
       x1="1316.665"
       gradientTransform="matrix(0.05954747,0,0,0.05954747,-42.218954,13.812119)"
       gradientUnits="userSpaceOnUse"
       id="linearGradient24641-6"
       xlink:href="#linearGradient4920-2-0"
       inkscape:collect="always" />
    <linearGradient
       inkscape:collect="always"
       id="linearGradient4920-2-0">
      <stop
         style="stop-color:#449a34;stop-opacity:1;"
         offset="0"
         id="stop4922-7-3" />
      <stop
         style="stop-color:#62b84a;stop-opacity:1"
         offset="1"
         id="stop4924-6-6" />
    </linearGradient>
    <linearGradient
       y2="-231.95239"
       x2="1316.665"
       y1="231.07143"
       x1="1316.665"
       gradientTransform="matrix(0.05954747,0,0,0.05954747,-42.218954,13.812119)"
       gradientUnits="userSpaceOnUse"
       id="linearGradient9608"
       xlink:href="#linearGradient4920-2-0"
       inkscape:collect="always" />
  </defs>
  <metadata
     id="metadata6151">
    <rdf:RDF>
      <cc:Work
         rdf:about="">
        <dc:format>image/svg+xml</dc:format>
        <dc:type
           rdf:resource="http://purl.org/dc/dcmitype/StillImage" />
        <dc:title></dc:title>
      </cc:Work>
    </rdf:RDF>
  </metadata>
  <g
     transform="matrix(1.6,0,0,1.6,-1204.3989,-1423.9084)"
     id="g9472">
    <rect
       ry="4"
       y="889.94275"
       x="752.74933"
       height="40"
       width="40"
       id="rect9474"
       style="fill:#ff8702;fill-opacity:1;stroke:none" />
    <path
       style="font-size:26.92712784px;font-style:normal;font-variant:normal;font-weight:normal;font-stretch:normal;text-align:start;line-height:100%;letter-spacing:0px;word-spacing:0px;writing-mode:lr-tb;text-anchor:start;fill:#ffffff;fill-opacity:1;stroke:none;font-family:Arial Black;-inkscape-font-specification:'Arial Black,'"
       d="M 17.25 16.59375 L 17.25 47.40625 L 26.21875 47.40625 L 26.21875 30.5 L 37.75 47.40625 L 46.75 47.40625 L 46.75 16.59375 L 37.75 16.59375 L 37.75 33.65625 L 26.15625 16.59375 L 17.25 16.59375 z "
       transform="matrix(0.625,0,0,0.625,752.74931,889.94275)"
       id="text5016-4-3-5-6-0-5" />
  </g>
</svg>

<svg xmlns="http://www.w3.org/2000/svg" viewBox="0 0 64 64" xmlns:xlink="http://www.w3.org/1999/xlink">
<defs/>
<g transform="matrix(1.6 0 0 1.6 -1204.3989 -1423.9084)">
<path fill="#ff8702" d="m756.749,889.943h32a4,4 0 0,1 4,4v32a4,4 0 0,1 -4,4h-32a4,4 0 0,1 -4-4v-32a4,4 0 0,1 4-4"/>
<path fill="#fff" word-spacing="0" line-height="100%" d="m17.25,16.5938v30.8125h8.9688v-16.9062l11.5312,16.9062h9v-30.8125h-9v17.0625l-11.5938-17.0625h-8.9062z" letter-spacing="0" transform="matrix(.625 0 0 .625 752.74931 889.94275)"/>
</g>
</svg>
